packages/icons/svg/Fill/smartphone.svg

<svg fill="none" height="24" viewBox="0 0 24 24" width="24" xmlns="http://www.w3.org/2000/svg"><path clip-rule="evenodd" d="m14.5 8.00042h-5.00002c-.553 0-1-.447-1-1s.447-1 1-1h5.00002c.553 0 1 .447 1 1s-.447 1-1 1zm-2.5 9.99998c-.828 0-1.5-.672-1.5-1.5s.672-1.5 1.5-1.5 1.5.672 1.5 1.5-.672 1.5-1.5 1.5zm5-15.99991h-10.00002c-1.654 0-3 1.346-3 3v14.00001c0 1.654 1.346 3 3 3h10.00002c1.654 0 3-1.346 3-3v-14.00001c0-1.654-1.346-3-3-3z" fill="#6b7280" fill-rule="evenodd"/></svg>

<svg width="24" height="24" viewBox="0 0 24 24" fill="none" xmlns="http://www.w3.org/2000/svg">
<g id="Icon/Fill/smartphone">
<path id="Mask" fill-rule="evenodd" clip-rule="evenodd" d="M14.5 8.0007H9.5C8.947 8.0007 8.5 7.5537 8.5 7.0007C8.5 6.4477 8.947 6.0007 9.5 6.0007H14.5C15.053 6.0007 15.5 6.4477 15.5 7.0007C15.5 7.5537 15.053 8.0007 14.5 8.0007ZM12 18.0007C11.172 18.0007 10.5 17.3287 10.5 16.5007C10.5 15.6727 11.172 15.0007 12 15.0007C12.828 15.0007 13.5 15.6727 13.5 16.5007C13.5 17.3287 12.828 18.0007 12 18.0007ZM17 2.0007H7C5.346 2.0007 4 3.3467 4 5.0007V19.0007C4 20.6547 5.346 22.0007 7 22.0007H17C18.654 22.0007 20 20.6547 20 19.0007V5.0007C20 3.3467 18.654 2.0007 17 2.0007Z" fill="#000000"/>
</g>
</svg>
